client/src/assets/remove.svg

<svg fill="none" height="24" viewBox="0 0 24 24" width="24" xmlns="http://www.w3.org/2000/svg"><g stroke="#000" stroke-linecap="round" stroke-width="2"><path d="m15 11h-3-3"/><path d="m14 19c3.7712 0 5.6569 0 6.8284-1.1716 1.1716-1.1715 1.1716-3.0572 1.1716-6.8284 0-3.77124 0-5.65685-1.1716-6.82843-1.1715-1.17157-3.0572-1.17157-6.8284-1.17157h-4c-3.77124 0-5.65685 0-6.82843 1.17157-1.17157 1.17158-1.17157 3.05719-1.17157 6.82843 0 3.7712 0 5.6569 1.17157 6.8284.65318.6532 1.52832.9422 2.82843 1.0701" stroke-linejoin="round"/><path d="m14 19c-1.2365 0-2.5978.4992-3.8414 1.145-1.99741 1.0371-2.99611 1.5557-3.48825 1.2253-.49215-.3305-.399-1.3552-.21269-3.4046l.04234-.4657"/></g></svg>

<svg width="24px" height="24px" viewBox="0 0 24 24" fill="none" xmlns="http://www.w3.org/2000/svg">
<path d="M15 11L12 11L9 11" stroke="black" stroke-width="2" stroke-linecap="round"/>
<path d="M14 19C17.7712 19 19.6569 19 20.8284 17.8284C22 16.6569 22 14.7712 22 11C22 7.22876 22 5.34315 20.8284 4.17157C19.6569 3 17.7712 3 14 3H10C6.22876 3 4.34315 3 3.17157 4.17157C2 5.34315 2 7.22876 2 11C2 14.7712 2 16.6569 3.17157 17.8284C3.82475 18.4816 4.69989 18.7706 6 18.8985" stroke="black" stroke-width="2" stroke-linecap="round" stroke-linejoin="round"/>
<path d="M14 19C12.7635 19 11.4022 19.4992 10.1586 20.145C8.16119 21.1821 7.16249 21.7007 6.67035 21.3703C6.1782 21.0398 6.27135 20.0151 6.45766 17.9657L6.5 17.5" stroke="black" stroke-width="2" stroke-linecap="round"/>
</svg>
